media/refresh.svg

<svg xmlns="http://www.w3.org/2000/svg" width="16" height="16"><path d="M13.451 5.609l-.579-.939-1.068.812-.076.094c-.335.415-.927 1.341-1.124 2.876l-.021.165.033.163.071.345c0 1.654-1.346 3-3 3-.795 0-1.545-.311-2.107-.868-.563-.567-.873-1.317-.873-2.111 0-1.431 1.007-2.632 2.351-2.929v2.926s2.528-2.087 2.984-2.461h.012l3.061-2.582-4.919-4.1h-1.137v2.404c-3.429.318-6.121 3.211-6.121 6.721 0 1.809.707 3.508 1.986 4.782 1.277 1.282 2.976 1.988 4.784 1.988 3.722 0 6.75-3.028 6.75-6.75 0-1.245-.349-2.468-1.007-3.536z" fill="#2D2D30"/><path d="M12.6 6.134l-.094.071c-.269.333-.746 1.096-.91 2.375.057.277.092.495.092.545 0 2.206-1.794 4-4 4-1.098 0-2.093-.445-2.817-1.164-.718-.724-1.163-1.718-1.163-2.815 0-2.206 1.794-4 4-4l.351.025v1.85s1.626-1.342 1.631-1.339l1.869-1.577-3.5-2.917v2.218l-.371-.03c-3.176 0-5.75 2.574-5.75 5.75 0 1.593.648 3.034 1.695 4.076 1.042 1.046 2.482 1.694 4.076 1.694 3.176 0 5.75-2.574 5.75-5.75-.001-1.106-.318-2.135-.859-3.012z" fill="#C5C5C5"/></svg>

<svg width="16" height="16" viewBox="0 0 16 16" fill="none" xmlns="http://www.w3.org/2000/svg">
<path d="M12.6 6.134L12.506 6.205C12.237 6.538 11.76 7.301 11.596 8.58C11.653 8.857 11.688 9.075 11.688 9.125C11.688 11.331 9.894 13.125 7.688 13.125C6.59 13.125 5.595 12.68 4.871 11.961C4.153 11.237 3.708 10.243 3.708 9.146C3.708 6.94 5.502 5.146 7.708 5.146L8.059 5.171V7.021C8.059 7.021 9.685 5.679 9.69 5.682L11.559 4.105L8.059 1.188V3.406L7.688 3.376C4.512 3.376 1.938 5.95 1.938 9.126C1.938 10.719 2.586 12.16 3.633 13.202C4.675 14.248 6.115 14.896 7.709 14.896C10.885 14.896 13.459 12.322 13.459 9.146C13.458 8.04 13.141 7.011 12.6 6.134Z" fill="#C5C5C5"/>
</svg>
